X: 37691
T: Snug In The Blanket
R: jig
M: 6/8
K: Gmajor
|:{g}e{A}ef {a}gfg|A{d}A{e}A {gf}g2 e|{g}faf {a}gec|{g}dcd {gfg}f2 d|
{g}e{A}ef {a}gfg|A{d}A{e}A {gf}g2 e|{g}faf {a}gec|{g}df{g}e {Gdc}d3:|
|:{g}c{G}cd {g}e2 {AGAG}A|{g}eAf {g}e2 {AGAG}A|{g}c{G}cd {g}e2 {AGAG}A|{g}B{G}Bc {g}dB{d}G|
{g}c{G}cd {g}e2 {AGAG}A|{g}eAf {g}e2 {AGAG}A|{g}faf {a}gec|{g}df{g}e {Gdc}d3:|

